img/app.svg

<svg width="32" height="32" xmlns="http://www.w3.org/2000/svg" xml:space="preserve" style="fill-rule:evenodd;clip-rule:evenodd;stroke-linejoin:round;stroke-miterlimit:2"><path d="M5 21c-.55 0-1.021-.196-1.412-.587A1.927 1.927 0 0 1 3 19V5c0-.55.196-1.021.588-1.413A1.926 1.926 0 0 1 5 3h14c.55 0 1.021.196 1.413.587.391.392.587.863.587 1.413v14a1.93 1.93 0 0 1-.587 1.413A1.93 1.93 0 0 1 19 21H5Zm0-2h14V5H5v14Zm1-2h12l-3.75-5-3 4L9 13l-3 4Zm-1 2V5v14Zm3.5-9a1.45 1.45 0 0 0 1.063-.437A1.45 1.45 0 0 0 10 8.5c0-.417-.146-.771-.437-1.062A1.447 1.447 0 0 0 8.5 7c-.417 0-.771.146-1.062.438A1.443 1.443 0 0 0 7 8.5c0 .417.146.771.438 1.063.291.291.645.437 1.062.437Z" style="fill:#fff;fill-rule:nonzero" transform="translate(-2.663 -2.663) scale(1.55418)"/></svg>

<?xml version="1.0" encoding="UTF-8" standalone="no"?>
<svg width="32" height="32" viewBox="0 0 32 32" version="1.1" xmlns="http://www.w3.org/2000/svg" xmlns:xlink="http://www.w3.org/1999/xlink" xml:space="preserve" style="fill-rule:evenodd;clip-rule:evenodd;stroke-linejoin:round;stroke-miterlimit:2;">
    <g transform="matrix(1.55418,0,0,1.55418,-2.66255,-2.66255)">
        <path d="M5,21C4.45,21 3.979,20.804 3.588,20.413C3.196,20.021 3,19.55 3,19L3,5C3,4.45 3.196,3.979 3.588,3.587C3.979,3.196 4.45,3 5,3L19,3C19.55,3 20.021,3.196 20.413,3.587C20.804,3.979 21,4.45 21,5L21,19C21,19.55 20.804,20.021 20.413,20.413C20.021,20.804 19.55,21 19,21L5,21ZM5,19L19,19L19,5L5,5L5,19ZM6,17L18,17L14.25,12L11.25,16L9,13L6,17ZM5,19L5,5L5,19ZM8.5,10C8.917,10 9.271,9.854 9.563,9.563C9.854,9.271 10,8.917 10,8.5C10,8.083 9.854,7.729 9.563,7.438C9.271,7.146 8.917,7 8.5,7C8.083,7 7.729,7.146 7.438,7.438C7.146,7.729 7,8.083 7,8.5C7,8.917 7.146,9.271 7.438,9.563C7.729,9.854 8.083,10 8.5,10Z" style="fill:white;fill-rule:nonzero;"/>
    </g>
</svg>
